img/sticky-minimize.svg

<svg clip-rule="evenodd" fill-rule="evenodd" stroke-linejoin="round" stroke-miterlimit="2" viewBox="0 0 334 334"
     xmlns="http://www.w3.org/2000/svg">
    <g fill="#ffffff" transform="scale(.416667)">
        <path d="m54.167 400c0 13.807 11.193 25 25 25h365.753l-65.357 56.02c-10.483 8.983-11.696 24.767-2.71 35.25 8.984 10.483 24.767 11.697 35.25 2.71l116.667-100c5.54-4.747 8.73-11.683 8.73-18.98s-3.19-14.233-8.73-18.98l-116.667-100.001c-10.483-8.986-26.266-7.772-35.25 2.711-8.986 10.483-7.773 26.266 2.71 35.251l65.357 56.019h-365.753c-13.807 0-25 11.193-25 25z"/>
        <path d="m312.5 325.001h12.609c-8.618-24.453-4.306-52.709 13.781-73.809 26.957-31.449 74.303-35.092 105.753-8.135l116.667 100c16.623 14.25 26.19 35.05 26.19 56.943 0 21.897-9.567 42.697-26.19 56.947l-116.667 100c-31.45 26.956-78.796 23.313-105.753-8.137-18.087-21.1-22.399-49.357-13.781-73.81h-12.609v58.333c0 94.28 0 141.42 29.29 170.71s76.43 29.29 170.71 29.29h33.333c94.28 0 141.42 0 170.71-29.29s29.29-76.43 29.29-170.71v-266.666c0-94.281 0-141.422-29.29-170.711s-76.43-29.289-170.71-29.289h-33.333c-94.28 0-141.42 0-170.71 29.289s-29.29 76.43-29.29 170.711z"
              fill-rule="nonzero"/>
    </g>
</svg>

<?xml version="1.0" encoding="UTF-8" standalone="no"?>
<!DOCTYPE svg PUBLIC "-//W3C//DTD SVG 1.1//EN" "http://www.w3.org/Graphics/SVG/1.1/DTD/svg11.dtd">
<svg width="100%" height="100%" viewBox="0 0 334 334" version="1.1" xmlns="http://www.w3.org/2000/svg"
     xmlns:xlink="http://www.w3.org/1999/xlink" xml:space="preserve" xmlns:serif="http://www.serif.com/"
     style="fill-rule:evenodd;clip-rule:evenodd;stroke-linejoin:round;stroke-miterlimit:2;">
    <g transform="matrix(0.416667,0,0,0.416667,0,0)">
        <path d="M54.167,400C54.167,413.807 65.36,425 79.167,425L444.92,425L379.563,481.02C369.08,490.003 367.867,505.787 376.853,516.27C385.837,526.753 401.62,527.967 412.103,518.98L528.77,418.98C534.31,414.233 537.5,407.297 537.5,400C537.5,392.703 534.31,385.767 528.77,381.02L412.103,281.019C401.62,272.033 385.837,273.247 376.853,283.73C367.867,294.213 369.08,309.996 379.563,318.981L444.92,375L79.167,375C65.36,375 54.167,386.193 54.167,400Z"
              style="fill:white;"/>
        <path d="M312.5,325.001L325.109,325.001C316.491,300.548 320.803,272.292 338.89,251.192C365.847,219.743 413.193,216.1 444.643,243.057L561.31,343.057C577.933,357.307 587.5,378.107 587.5,400C587.5,421.897 577.933,442.697 561.31,456.947L444.643,556.947C413.193,583.903 365.847,580.26 338.89,548.81C320.803,527.71 316.491,499.453 325.109,475L312.5,475L312.5,533.333C312.5,627.613 312.5,674.753 341.79,704.043C371.08,733.333 418.22,733.333 512.5,733.333L545.833,733.333C640.113,733.333 687.253,733.333 716.543,704.043C745.833,674.753 745.833,627.613 745.833,533.333L745.833,266.667C745.833,172.386 745.833,125.245 716.543,95.956C687.253,66.667 640.113,66.667 545.833,66.667L512.5,66.667C418.22,66.667 371.08,66.667 341.79,95.956C312.5,125.245 312.5,172.386 312.5,266.667L312.5,325.001Z"
              style="fill:white;fill-rule:nonzero;"/>
    </g>
</svg>
